X:1
T:Sandy Boys Reel
M:2/4
L:1/8
Z: Contributed 2016-05-02 01:11:11 by jIm Gaskins fiddeji@comcast.net
K:A
"A"a=g eg|e/d/c Aa-|a=g eg|a>b aa-|!
a=g eg|e/d/c AA/B/|ce "E"e 19d /d/c|"A"A2A2:|]!
"A"e2 e2|d/A/c AA/B/|ce "D"dA/B/|"A"ce d/c/A|!
"A"e2 e2|d/A/c AA/B/|ce "E"e/d/c|"A"A2 A2:|]!
